X: 1
T: Hank & Clem
P: piffero primo a0627
O: Mary Punch
%R: jig
F: http://ancients.sudburymuster.org/mus/sng/pdf/handcC0.pdf
Z: 2020 John Chambers <jc:trillian.mit.edu>
M: 6/8
L: 1/8
K: D
a/f/ |\
d2d dfg | a2a fed | Bcd efg | fed cBA |\
d2d dfg | a2a fed | ABc def | Adc d2 :|
|: A |\
d2f e2d | Bd2 z2B | efg fed | cde A2A |\
d2f e2d | B2c d2B | ABc def | Adc d2 :|
